!! 00000] TT[WS
!!!OTL: Wuge fangyang
!!!ARE: Asia, China,ÿShanxi Zhongyang
!! Ethnic Group: Han
!! WI, 54 (2)
!!!SCT: J0059
!!!YEM: Copyright 1995, estate of Helmut Schaffrath.
**kern
*ICvox
*Ivox
*M2/4
*k[b-e-a-]
*E-:
{8b-
16b-
16b-
8.ee-
16ff
=1
8.ee-
16dd
8cc
8b-
=2
4f
8b-
8b-
=3
8ee-
16b-
16cc
4b-
=4
8g
16f
16e-
4B-}
=5
{8g
8g
8f
16g
16f
=6
8e-
8f
4b-
=7
8ee-
16cc
16ee-
8cc
16b-
16cc
=8
4b-
8g
16f
16e-
=9
2B-}
=10
{8b-
8b-
8.ee-
16ff
=11
8ee-
16cc
16ee-
8cc
16b-
16cc
=12
4b-
8g
16f
16e-
=13
2B-}
=14
{8b-
8b-
8.ee-
16ff
=15
8ee-
16cc
16ee-
8cc
16b-
16cc
=16
4b-
8g
16f
16e-
=17
2B-}
==
!!!AGN: Xiaodiao. Qingge
!!!ONB: ESAC (Essen Associative Code) Database: CHINA
!!!AMT: simple duple
!!!AIN: vox
!!!EED: Helmut Schaffrath
!!!EEV: 1.0
*-
